!!!OTL: 1263. Das lustige Schwabenbueblein.
!!!ARE: Europa, Mitteleuropa, Deutschland
!!!SCT: K1263
!!!TXL: @@SWG
!!!YEM: Copyright 1995, estate of Helmut Schaffrath.
**kern	**text
*clefG2	*
*M6/8	*
*k[]	*
*C:	*
=1	=1
{4cc	Hei!
8cc	was
8g	bin
8g	i
8g	a
=2	=2
8a	lu-
8a	-ſti-
8a	-ger
4g}	Bua,
{8g	was
=3	=3
8a	kann
8a	i
8a	ſo
8b	ʒwit-
8b	-ſer-
8b	-le
=4	=4
4.cc	tan-
4.g}	-ʒa!
=5	=5
{4cc	Hei,
8cc	was
8g	han
8g	i
8g	a
=6	=6
4a	Schüeh-
8a	-le
4.g}	an,
=7	=7
{4a	hei,
8a	was
8b	han
8b	i
8b	a
=8	=8
4cc	Schnäl-
8cc	-le
4g}	dra.
!LO:TX:a:t=Ʒur ersten Strophe.	!
{8g	Mei
=9	=9
8g	Schnälle
8a	.
8b	mei
!LO:N:vis=4	!
4.cc}	Schuh!
==	==
!!!AGN: Kinder - Lied, Zaehl - Geschichte
!!!ONB: ESAC (Essen Associative Code) Database: KINDER
!!!AMT: compound duple
!!!AIN: vox
!!!EED: Helmut Schaffrath
!!!EEV: 1.0
!!G. Dittmar, Kinderlust 1872, 104.
!!!GTL: VIII. Lustige geschichten. [Thiermaerchen, Neck- und Luegenmaerchen und Zaehlgeschichten.]
!!@@COMMENT:"Jn dieſer Ʒählgeſchichte werden nach und nach beſungen: 1) Schuh mit Schnallen. 2) Strümpfle mit Ʒwickle. 3) Hösle mit Neſtle. 4) Hemmedle mit a Preißla.
!!5) Wämmsle mit a Knöpfle. 6) Hütle mit Sträußle. 7) Stöckle und a Bändle dran. Köhler, Vogtländ. Volkslieder 305. Birlinger 162. Liederhort JJ. Sp. 63. 
!!Dinmar, Der Kinder Luſtfeld 1827. S. 91. Meinert 91. Schottky 23 und 24. Ditfurth 296. Pröhle 164. Rudlof, Muſterſaal JJ. 5. Simrock 271. Nicolai, Alm.
!!II. 1778. Nr. 20 1, Ei, wie bin i a luſtiger Bua").[...]"
!!@@END:
!!!URL-scan: https://archive.org/details/DeutschesKinderliedUndKinderspiel/page/267/mode/1up
!!!ENC: Anna Maria Matuszewska
!!!EEV: 2024/02/09
*-	*-
